X:49
T:Hut in the Bog, The
R:reel
D:Mary Bergin: Feadoga Stain.
Z:id:hn-reel-49
M:C|
K:Em
BE~E2 GFGA|BE~E2 Bded|BE~E2 dedB|ABAF DEFA:|
BcBA GFGA|BG~G2 Bdgd|BcBA G2FG|AD (3FED FA~A2|
BcBA GFGA|BG~G2 Bdg2|gbaf ~g3e|dedB A2GA||
<end>
<start>
